X: 3949
T: Blackbird, The
R: reel
M: 4/4
K: Dmajor
a2g2|:f~B2A Bfaf|gfed cdeg|f~B2ABfaf|1 gfeg f ~B2g]:|2 gfeg f ~B2e:|
fdBd fdBd|fdBd ecAc|fdBd fdfg|1 fedc d~B2e]:|2 fedc d~B2d:|
afdf afdf|gfed cdeg|afdf afdf|agfa f~B2d|
afdf afdf|gfed cdeg|f zBc dfaf|gfeg f~B2g|
|:f~B2A ~Bfaf|gfed cdeg|f~B3 d faf|gfeg f~B2d:|
fd~Bd fd~Bd|fd~Bd ec~Ac|fd~Bd fdfg|fedc dB~Be|
fB~B2 fB~B2|fB~B2 eA~A2|fB~B2 fdfg|fedc dB~B2|
afff[A2f2]|fgfe dcdg|afdf afdf|gfeg fB~B2|
afdf afdf|gfed cdeg|f zBc dfaf|gfeg f~B2z|

